!!!ONB: MCCC : ILB0192_02 : Extracted Monophonic Melody
!!!COM: Beethoven, Ludwig van
!!!OPR: Piano Sonata No.31
!!!OMV: 2
!!!SCT: Op.110
!!!ODT: 1821///
**kern
*thru
*staff1
*Ipiano
*>A
*clefG2
*k[b-e-a-d-]
*f:
*M2/4
*MM240
=1
4cc
4b-
=2
4a-
4g
=3
4f
4f
=4
2e
=5
4gg
4ee
=6
4cc
4cc
=7
4cc
4dd
=8
2ee
=9
*>A
*M2/4
4cc
4b-
=10
4a-
4g
=11
4f
4f
=12
2e
=13
4gg
4ee
=14
4cc
4cc
=15
4cc
4dd
=16
2ee
=17
*>X
4gg
4gg
=18
*>B
4gg
4aa-
=19
4aa-
[4aa-
=20
4aa-]
[4bb-
=21
4bb-]
4bb-
=22
4bb-
4ccc
=23
4ddd-
4bb-
=24
2aa-
=25
4a-
4a-
=26
8g
8f
4e-
=27
4cc
4cc
=28
8b-
8a-
4g
=29
4ee-
4ee-
=30
4dd-
4cc
=31
4b-
4cc
=32
4b-
4cc
=33
4f
4f
=34
8e
8d
4c
=35
4a-
4a-
=36
8g
8f
4e
=37
4cc
4cc
=38
4b-
4a-
=39
4g
4a-
=40
2g
=41
4cc
4cc
=42
4dd
4gg
=43
4ff
4ee
=44
4ff
4gg
=45
2r
=46
2r
=47
4aa-
4ccc
=48
*>B1
4ff
4gg[
=49
4gg]
4gg
=50
*>B
4gg
4aa-
=51
4aa-
[4aa-
=52
4aa-]
[4bb-
=53
4bb-]
4bb-
=54
4bb-
4ccc
=55
4ddd-
4bb-
=56
2aa-
=57
4a-
4a-
=58
8g
8f
4e-
=59
4cc
4cc
=60
8b-
8a-
4g
=61
4ee-
4ee-
=62
4dd-
4cc
=63
4b-
4cc
=64
4b-
4cc
=65
4f
4f
=66
8e
8d
4c
=67
4a-
4a-
=68
8g
8f
4e
=69
4cc
4cc
=70
4b-
4a-
=71
4g
4a-
=72
2g
=73
4cc
4cc
=74
4dd
4gg
=75
4ff
4ee
=76
4ff
4gg
=77
2r
=78
2r
=79
4aa-
4ccc
=80
*>B2
4ff
[4fff
=81
*>C
*k[b-e-a-d-g-]
8fff]
8ccc
8eee-
8ddd-
=82
8aa-
8ccc
8bb-
8gg
=83
8bb-
8ff
8aa-
8gg-
=84
8ee-
8gg-
8ff
8dd-
=85
8gg-
8dd
8ff
8ee-
=86
8b
8dd-
8cc
8a-
=87
8b-
8g-
8b-
8a-
=88
4f
4ggg-
=89
8fff
8ccc
8eee-
8ddd-
=90
8aa-
8ccc
8bb-
8gg
=91
8bb-
8ff
8aa-
8gg-
=92
8ee-
8gg-
8ff
8dd-
=93
8ff
8cc
8ee-
8dd-
=94
8a-
8dd-
8cc-
8a-
=95
8cc-
8a-
8cc-
8a
=96
4b-
[4bbb-
=97
8bbb-]
8fff
8aaa-
8ggg-
=98
8ddd-
8fff
8eee-
8ccc
=99
8eee-
8bb-
8ddd-
8ccc-
=100
8aa-
8ccc-
8bb-
8gg-
=101
8ccc-
8gg
8bb-
8aa-
=102
8ee
8gg-
8ff
8dd-
=103
8ee-
8cc-
8ee-
8dd-
=104
4b-
[4bbb-
=105
8bbb-]
8fff
8aaa-
8ggg-
=106
8ddd-
8fff
8eee-
8ccc
=107
8eee-
8bb-
8ddd-
8ccc-
=108
8aa-
8ccc-
8bb-
8gg-
=109
8bb-
8gg
8bb-
8aa-
=110
8ff
8aa-
8gg-
8ee-
=111
8dd
8a-
8cc-
8b-
=112
4g-
[4ggg-
=113
8ggg-]
8ddd
8fff
8eee-
=114
4gg-
4ggg-
=115
4ff
4fff[
=116
8fff]
8ccc
8eee-
8ddd-
=117
8aa-
8ccc
8bb-
8gg
=118
8bb-
8ff
8aa-
8gg-
=119
8ee-
8gg-
8ff
8dd-
=120
8gg-
8dd
8ff
8ee-
=121
8b
8dd-
8cc
8a-
=122
8b-
8g-
8b-
8a-
=123
4f
[4ff
=124
8ff]
8cc
8ee-
8dd-
=125
8a-
8cc
8b-
8g
=126
8b-
8f
8a-
8g-
=127
8e-
8g-
8f
8d-
=128
8g-
8d
8f
8e-
=129
8B
8d-
8c
8A-
=130
8B-
8G-
8B-
8A-
=131
8E-
8G-
8F
8D-
=132
2r
=133
8f
8c
8e-
8d-
=134
2r
=135
8ff
8cc
8ee-
8dd-
=136
*k[b-e-a-d-]
4cc
4b-
=137
4a-
4g
=138
4f
4f
=139
2e
=140
4gg
4ee
=141
4cc
4cc
=142
4cc
4dd
=143
2ee
=144
4cc
4b-
=145
4a-
4g
=146
4f
4f
=147
2e
=148
4gg
4ee
=149
4cc
4cc
=150
4cc
4dd
=151
2ee
=152
4gg
4gg
=153
*>D
4gg
4aa-
=154
4aa-
4aa-
=155
4aa-
[4bb-
=156
4bb-]
[4bb-
=157
4bb-]
4ccc
=158
4ddd-
4bb-
=159
2aa-
=160
4a-
4a-
=161
8g
8f
4e-
=162
4cc
4cc
=163
8b-
8a-
4g
=164
4ee-
4ee-
=165
4dd-
4cc
=166
4b-
4cc
=167
4b-
4cc
=168
4f
4f
=169
8e
8d
4c
=170
4a-
4a-
=171
8g
8f
4e
=172
4cc
4cc
=173
4b-
4a-
=174
4g
4a-
=175
2g
=176
4cc
4cc
=177
4dd
4gg
=178
4ff
4ee
=179
4ff
4gg
=180
2r
=181
2r
=182
4aa-
4ccc
=183
*>D1
4ff
4gg[
=184
4gg]
4gg
=185
*>D
4gg
4aa-
=186
4aa-
4aa-
=187
4aa-
[4bb-
=188
4bb-]
[4bb-
=189
4bb-]
4ccc
=190
4ddd-
4bb-
=191
2aa-
=192
4a-
4a-
=193
8g
8f
4e-
=194
4cc
4cc
=195
8b-
8a-
4g
=196
4ee-
4ee-
=197
4dd-
4cc
=198
4b-
4cc
=199
4b-
4cc
=200
4f
4f
=201
8e
8d
4c
=202
4a-
4a-
=203
8g
8f
4e
=204
4cc
4cc
=205
4b-
4a-
=206
4g
4a-
=207
2g
=208
4cc
4cc
=209
4dd
4gg
=210
4ff
4ee
=211
4ff
4gg
=212
2r
=213
2r
=214
4aa-
4ccc
=215
*>D2
4ff
4r
=216
*>E
2ff
=217
2r
=218
2gg
=219
2r
=220
2aa-
=221
2r
=222
2ddd-
=223
2r
=224
2ccc
=225
2r
=226
2ccc
=227
[2ccc
=228
2ccc_
=229
2ccc_
=230
2ccc]
==
*-
